X:0523
T:The King's Anthem.
M:3/4
L:1/8
Q:1/4=90
I: :: (1) :| (2) ||
N:Aird prints e3 not e2 in the next to last bar
Z:Jack Campin * www.campin.me.uk * 2009
K:D
     d2           d2   e>d    |    {d}Tc3  d  e2         |\
({de}f2)          f2   g2     |    {g}Tf3  e  d2         |\
     e/f/g/e/ ({e}d2)  c2     |    {Bc}d6               ::
     a2           a2   a>b    |    {b}Ta3  g  f2         |\
     g2           g2   g2{a}  |    {a}Tg3  f  e2         |\
     f3/g//a//   (gf) Ted     |[1 ({de}f3) g  a2         |
     b/a/g        f2 (Te2{de})|     {c}d6               :|\
                               [2 ({de}f3) g (a/b/c'/d'/)|\
    (c'/b/a/g/)   f2 (Te2{de})|        d6               |]
<end>
<start>
